assets/images/eReceiptIcon.svg

<svg xmlns="http://www.w3.org/2000/svg" viewBox="0 0 72 100"><style type="text/css">.st0{fill-rule:evenodd;clip-rule:evenodd}</style><path d="M0 95.6235V4.3765C0 2.49065 2.35447 1.61234 3.6053 3.03159L7.45184 7.39606C8.27143 8.32601 9.72857 8.32601 10.5482 7.39606L16.4518 0.69746C17.2714 -0.232485 18.7286 -0.232487 19.5482 0.697458L25.4518 7.39606C26.2714 8.32601 27.7286 8.32601 28.5482 7.39606L34.4518 0.69746C35.2714 -0.232485 36.7286 -0.232487 37.5482 0.697458L43.4518 7.39606C44.2714 8.32601 45.7286 8.32601 46.5482 7.39606L52.4518 0.69746C53.2714 -0.232485 54.7286 -0.232487 55.5482 0.697458L61.4518 7.39606C62.2714 8.32601 63.7286 8.32601 64.5482 7.39606L68.3947 3.03159C69.6455 1.61235 72 2.49065 72 4.3765V95.6235C72 97.5093 69.6455 98.3877 68.3947 96.9684L64.5482 92.6039C63.7286 91.674 62.2714 91.674 61.4518 92.6039L55.5482 99.3025C54.7286 100.232 53.2714 100.232 52.4518 99.3025L46.5482 92.6039C45.7286 91.674 44.2714 91.674 43.4518 92.6039L37.5482 99.3025C36.7286 100.232 35.2714 100.232 34.4518 99.3025L28.5482 92.6039C27.7286 91.674 26.2714 91.674 25.4518 92.6039L19.5482 99.3025C18.7286 100.232 17.2714 100.232 16.4518 99.3025L10.5482 92.6039C9.72857 91.674 8.27143 91.674 7.45184 92.6039L3.6053 96.9684C2.35448 98.3877 0 97.5093 0 95.6235Z" class="st0"/></svg>

<svg xmlns="http://www.w3.org/2000/svg" viewBox="0 0 72 100"><style>.st0{fill-rule:evenodd;clip-rule:evenodd}</style><path d="M0 95.624V4.377C0 2.49 2.354 1.611 3.605 3.031l3.847 4.364c.82.93 2.277.93 3.096 0L16.452.697c.82-.93 2.277-.93 3.096 0l5.904 6.7c.82.929 2.277.929 3.096 0l5.904-6.7c.82-.93 2.277-.93 3.096 0l5.904 6.7c.82.929 2.277.929 3.096 0l5.904-6.7c.82-.93 2.277-.93 3.096 0l5.904 6.7c.82.929 2.277.929 3.096 0l3.847-4.365C69.645 1.612 72 2.49 72 4.377v91.247c0 1.885-2.355 2.764-3.605 1.344l-3.847-4.364a2.067 2.067 0 0 0-3.096 0l-5.904 6.698c-.82.93-2.277.93-3.096 0l-5.904-6.698a2.067 2.067 0 0 0-3.096 0l-5.904 6.698c-.82.93-2.277.93-3.096 0l-5.904-6.698a2.067 2.067 0 0 0-3.096 0l-5.904 6.698c-.82.93-2.277.93-3.096 0l-5.904-6.698a2.067 2.067 0 0 0-3.096 0l-3.847 4.364C2.355 98.388 0 97.51 0 95.624" class="st0"/></svg>
